svgs/url_radio.svg

<svg width="192" height="192" viewBox="0 0 192 192" fill="none" xmlns="http://www.w3.org/2000/svg">
<path d="M164 48H28C24.6863 48 22 50.6863 22 54V138.966C22 142.279 24.6863 144.966 28 144.966H164C167.314 144.966 170 142.279 170 138.966V54C170 50.6863 167.314 48 164 48Z" stroke="black" stroke-width="12" stroke-linecap="round" stroke-linejoin="round"/>
<path d="M63.5 126C79.2401 126 92 113.24 92 97.5C92 81.7599 79.2401 69 63.5 69C47.7599 69 35 81.7599 35 97.5C35 113.24 47.7599 126 63.5 126Z" stroke="black" stroke-width="10"/>
<path d="M111 121C112.657 121 114 119.657 114 118C114 116.343 112.657 115 111 115C109.343 115 108 116.343 108 118C108 119.657 109.343 121 111 121Z" stroke="black" stroke-width="6"/>
<path d="M147 121C148.657 121 150 119.657 150 118C150 116.343 148.657 115 147 115C145.343 115 144 116.343 144 118C144 119.657 145.343 121 147 121Z" stroke="black" stroke-width="6"/>
<path d="M129 121C130.657 121 132 119.657 132 118C132 116.343 130.657 115 129 115C127.343 115 126 116.343 126 118C126 119.657 127.343 121 129 121Z" stroke="black" stroke-width="6"/>
<path d="M103 74V94C103 97.3137 105.686 100 109 100H150C153.314 100 156 97.3137 156 94V74C156 70.6863 153.314 68 150 68H109C105.686 68 103 70.6863 103 74Z" stroke="black" stroke-width="8" stroke-linejoin="round"/>
</svg>

<svg width="192" height="192" viewBox="0 0 192 192" fill="none" xmlns="http://www.w3.org/2000/svg"><path d="M164 48H28a6 6 0 0 0-6 6v84.966a6 6 0 0 0 6 6h136a6 6 0 0 0 6-6V54a6 6 0 0 0-6-6Z" stroke="#000" stroke-width="12" stroke-linecap="round" stroke-linejoin="round"/><path d="M63.5 126C79.24 126 92 113.24 92 97.5S79.24 69 63.5 69 35 81.76 35 97.5 47.76 126 63.5 126Z" stroke="#000" stroke-width="10"/><path d="M111 121a3 3 0 1 0 0-6 3 3 0 0 0 0 6ZM147 121a3 3 0 1 0 0-6 3 3 0 0 0 0 6ZM129 121a3 3 0 1 0 0-6 3 3 0 0 0 0 6Z" stroke="#000" stroke-width="6"/><path d="M103 74v20a6 6 0 0 0 6 6h41a6 6 0 0 0 6-6V74a6 6 0 0 0-6-6h-41a6 6 0 0 0-6 6Z" stroke="#000" stroke-width="8" stroke-linejoin="round"/></svg>
